public/pieces/icpieces/bP.svg

<svg height="368" width="368" xmlns="http://www.w3.org/2000/svg"><path d="m145 215c-4.913 25.333-17.339 46.751-34.285 66-7.659 8.699-20.346 15.447-25.3871 26-4.9709 10.406-3.3279 22.803-3.3279 34h204c0-11.197 1.643-23.594-3.328-34-5.016-10.5-17.75-17.326-25.387-26-16.946-19.249-29.372-40.667-34.285-66 3.796-.079 7.332-.638 11-1.641 2.801-.766 5.546-1.733 7.995-3.329 13.427-8.751 4.375-22.574-4.034-30.991-2.682-2.683-7.089-5.157-8.071-9.054-.791-3.137.637-6.843.94-9.985.453-4.693-.148-9.406-1.116-14-4.721-22.397-24.684-36.034-46.714-36-21.229.033-40.277 14.949-44.714 36-.968 4.594-1.569 9.307-1.116 14 .303 3.142 1.731 6.848.94 9.985-.982 3.897-5.389 6.371-8.071 9.054-8.409 8.417-17.461 22.24-4.034 30.991 2.449 1.596 5.194 2.563 7.995 3.329 3.668 1.003 7.204 1.562 11 1.641z" fill="#fff"/><path d="m129 198h110c-3.602-10.681-15.6-14.379-20.071-24-1.823-3.922 1.196-9.008 1.771-13 .853-5.924-.009-12.428-2.168-18-10.484-27.064-47.997-31.384-64.743-8-5.079 7.092-7.546 16.307-6.615 25 .456 4.266 3.815 9.873 1.897 14-4.471 9.621-16.469 13.319-20.071 24m27 10c-3.347 26.46-13.618 50.244-30.46 71-5.397 6.651-11.183 13.079-17.54 18.83-4.468 4.043-10.6065 7.829-13.5579 13.209-3.2773 5.975-2.4421 13.409-2.4421 19.961h184c0-6.552.835-13.986-2.442-19.961-2.951-5.38-9.09-9.166-13.558-13.209-6.357-5.751-12.143-12.179-17.54-18.83-16.842-20.756-27.113-44.54-30.46-71z"/></svg>

<?xml version="1.0" standalone="yes"?>
<svg xmlns="http://www.w3.org/2000/svg" width="368" height="368">
<path style="fill:#ffffff; stroke:none;" d="M145 215C140.087 240.333 127.661 261.751 110.715 281C103.056 289.699 90.369 296.447 85.3279 307C80.357 317.406 82 329.803 82 341L286 341C286 329.803 287.643 317.406 282.672 307C277.656 296.5 264.922 289.674 257.285 281C240.339 261.751 227.913 240.333 223 215C226.796 214.921 230.332 214.362 234 213.359C236.801 212.593 239.546 211.626 241.995 210.03C255.422 201.279 246.37 187.456 237.961 179.039C235.279 176.356 230.872 173.882 229.89 169.985C229.099 166.848 230.527 163.142 230.83 160C231.283 155.307 230.682 150.594 229.714 146C224.993 123.603 205.03 109.966 183 110C161.771 110.033 142.723 124.949 138.286 146C137.318 150.594 136.717 155.307 137.17 160C137.473 163.142 138.901 166.848 138.11 169.985C137.128 173.882 132.721 176.356 130.039 179.039C121.63 187.456 112.578 201.279 126.005 210.03C128.454 211.626 131.199 212.593 134 213.359C137.668 214.362 141.204 214.921 145 215z"/>
<path style="fill:#000000; stroke:none;" d="M129 198L239 198C235.398 187.319 223.4 183.621 218.929 174C217.106 170.078 220.125 164.992 220.7 161C221.553 155.076 220.691 148.572 218.532 143C208.048 115.936 170.535 111.616 153.789 135C148.71 142.092 146.243 151.307 147.174 160C147.63 164.266 150.989 169.873 149.071 174C144.6 183.621 132.602 187.319 129 198M156 208C152.653 234.46 142.382 258.244 125.54 279C120.143 285.651 114.357 292.079 108 297.83C103.532 301.873 97.3935 305.659 94.4421 311.039C91.1648 317.014 92 324.448 92 331L276 331C276 324.448 276.835 317.014 273.558 311.039C270.607 305.659 264.468 301.873 260 297.83C253.643 292.079 247.857 285.651 242.46 279C225.618 258.244 215.347 234.46 212 208L156 208z"/>
</svg>
